X: 13
T:Off She Goes. WCa.13
M:6/8
L:1/8
Q:120
S:Wm. Calvert MS, 1812, Leyburn, Yorks.
R:Jig
O:England
A:North Yorkshire
Z:vmp.Chris Partington, May 2003
K:D
F2AG2B|ABAd3|F2AG2B|AFDE3|!
F2AG2B|ABAd3|f2dg2f|edcd3:|!
|:fafd2f|egec2e|fafd2f|edcd3|!
fafd2f|egec2e|f2dg2f|edcd3:||
